X:1
T:Title
%%score { ( 1 3 ) | ( 2 4 ) }
L:1/8
M:3/4
K:G
V:1 treble nm="Grand Piano"
V:3 treble 
V:2 bass 
V:4 bass 
V:1
 z2 z2[Q:1/4=106] D2 | [B,DG]2 [B,DG]2 [B,DG]2 | [B,DG]4 [DFA]2 | [DGB]2 [DGB]2 [DGB]2 | %4
 [DGB]4 d2 | d2 c2 B2 | A4 [A,FA]2 | [A,FA]2 [A,DF]2 [A,EG]2 | [A,FA]2 [DGB]2 [B,EG]2 | %9
 [A,DF]2 [A,EG]2[K:bass] [G,^CE]2 | [F,D]4 D-[DE] | F2 G2 A2 | G4 GA | B2 c2 B2 |[M:2/4] [FA]4 | %15
[M:1/4] [FA][GB] |[M:3/4] [Ac]2 [GB]2 [FA]2 | B4 Bc | d2 B2 G2 | [Ec]4 [EB][EA] | %20
 [B,DG]2 [CDA]2 [CDF]2 |[M:2/4] [B,DG]4 |] %22
V:2
 z2 z2 D,2 | G,,2 B,,2 D,2 | G,4 D,2 | G,2 D,2 B,,2 | G,,4 [G,B,D]2 | [G,B,D]2 [F,A,D]2 [G,D]2 | %6
 [D,F,D]4 D,2 | D,2 D,2 D,2 | D,2 G,,2 G,,2 | A,,2 A,,2 A,,2 | D,4 z G, | %11
 [D,A,D]2 [D,B,D]2 [D,CD]2 | [G,B,D]4[K:treble] [G,D]-[G,CD] | [G,DG]2 [G,EG]2 [G,DG]2 | %14
[M:2/4][K:bass] [D,D]4 |[M:1/4] [D,D][D,D] |[M:3/4] [D,D]2 [D,D]2 [D,D]2 | [G,DG]4 [G,G][G,A,G] | %18
 [G,B,G]2 [G,DG]2[K:bass] [G,B,D]2 | [C,C]4 [C,C][C,C] | D,2 D,2 D,2 |[M:2/4] G,,4 |] %22
V:3
 x6 | x6 | x6 | x6 | x6 | x6 | x6 | x6 | x6 | x4[K:bass] x2 | z2 z2 .F,2 | x6 | x6 | x6 | %14
[M:2/4] x4 |[M:1/4] x2 |[M:3/4] x6 | x6 | x6 | x6 | x6 |[M:2/4] x4 |] %22
V:4
 x6 | x6 | x6 | x6 | x6 | x6 | x6 | x6 | x6 | x6 | z2 z2 D,2 | x6 | z2 z2[K:treble] .B,2 | x6 | %14
[M:2/4][K:bass] x4 |[M:1/4] x2 |[M:3/4] x6 | x6 | x4[K:bass] x2 | x6 | x6 |[M:2/4] x4 |] %22

